X: 1
T: Morgan MacGann
B: A COLECTION of the most Celebrated Irish Tunes2 p.3b
M: C|
L: 1/8
K: G
D2G2 G2A2 | B2AG Bcd2 | e2A2 A2E2 | F3E D2EF |\
G4- G2A2 | G2D2 C2E2 | FGA2 A2E2 | F3E DEFD |
G4 AGAF | G6 B2 | c2A2 A2Bc | d4 e4 |\
d2B2 cBAG | F3E D2EF | G4 AGAF | G8 |]
B2d2 d2ef | g2G2 Bcd2 | g2G2 Bcd2 | e2A2 A2c2 |\
Bcd2 d2B2 | e2c2 d2B2 | c2A2 d2G2 | F3E D2G2 |
E2C2 C2D2 | E2C2 C2E2 | F2D2 D2E2 | F2D2 D2Bc |\
d4 edcB | cBAG FGA2 | D2(GF) FGA2 | D2(GF) G4 |]
